startshape snakeparty
 
 
rule snakeparty {
 snake { }
 snakeparty {y 1.0 s 0.95 r -15}
}
 
rule snakeeye {
  CIRCLE {b 1}
  CIRCLE {b -1 s 0.4 x -0.35}
}
 
rule snake {
 snaketail { }
 snakeeye {s 0.4 x -0.2 y 0.2}
 snakemouth {x -0.5 y -0.2 s 0.3}
}
 
rule snaketail {
 CIRCLE {}
 SQUARE {x 0.32 y 0.1 s 0.5 r -30}
 SQUARE {x 0.32 y -0.1 s 0.5 r 30}
 snaketail {x 0.8 s 0.7}
}
 
rule snakemouth {
 SQUARE {b 1 r 65}
}